site/static/images/icons/svg/browser.svg

<svg height="30" viewBox="0 0 30 30" width="30" xmlns="http://www.w3.org/2000/svg"><g fill="none" fill-rule="evenodd" transform="translate(-1)"><path d="m16.1736328 29.601227c8.1883769 0 14.8263672-6.5806813 14.8263672-14.698364 0-3.5302101-1.2553753-6.7697429-3.3476999-9.3037847-2.718955-3.29296159-6.851244-5.39457932-11.4786673-5.39457932-8.18837695 0-14.82636726 6.58068131-14.82636726 14.69836402 0 8.1176827 6.63799031 14.698364 14.82636726 14.698364z" fill="#ffe36a"/><path d="m2.31946206 20.9045373c-.34580686-.71917-.41970982-1.074906-.64390329-1.5822661-.16860667-.3815646-.30630888-1.0460853-.39243552-1.5554983-.06952558-.4112229-.09799176-.6818551-.13979945-.9276668-.12783748-.751631-.07919256-2.5695358-.07919256-2.5695358s.06211444-1.080885.25462332-2.1976054c.10894267-.6319635.30839588-1.2682216.4412984-1.7443354.38883068-1.39295866 1.65873587-3.5751696 1.65873587-3.5751696s2.23987364 2.25402903 4.28805506 4.6344338c1.18088348 1.3724276.60113639.8005942 1.59471327 1.6924484.99357684.8918543.06323154-.115847.92750424.8821559 2.0410371 2.3568498.570324 3.4902744 1.0317195 4.0288785s2.6320001 2.0784871 3.6550673 2.2129895c2.2301819.2932016 6.8373536-2.6377147 6.8373536-2.6377147l-5.3963207 12.1171011s-.0451772.0746608-1.1946095-.0256197c-1.6719025-.1458624-4.8416654-.635267-8.09064747-2.9784731-.34181281-.2465196-1.09116761-.8746205-1.69392261-1.4814154-.98794872-.9945702-1.876703-2.2457501-1.876703-2.2457501s-.06219077.0502963-.74426367-1.2816362c-.16094228-.3142835-.33047626-.5432173-.43727279-.7653206z" fill="#71de85"/><path d="m18.3767944.23784223c-1.4704113-.25489695-1.4678136-.17478205-1.4678136-.17478205s-.6554743-.0679638-1.4922273-.02841859c-.4632278.02189229-.9820129.11218967-1.4759011.1810661-.8456242.11792866-1.7448594.34053446-2.1467436.46613756-6.44619857 2.01466539-8.6815789 6.80273781-8.6815789 6.80273781s7.1630969 9.93488394 7.6013334 10.37432824c.4382366.4394442-1.06177325-4.7205871-.3231181-3.9583733.4538356.4635449 1.835522 1.9810838 1.835522 1.9810838.7443419-1.431545-.9811645-4.012413-.0000002-5.0157177.722732-.7390407.2000621-.8612957.9063489-.90696329.7062869-.04566753-2.2956316.21749959.8082368 0 3.1038683-.21749956-1.6510118-.79599252 1.4759009-1.00504246.9122015-.06098529-3.2432222.06250545-1.4759009 0 1.1917308-.04214834-1.5866461.05786791.2803731 0 .9974311-.03091519 1.4524285-.27362176 2.7750369-.31482077 5.1154525-.15934543 12.4630996-.15894085 12.4630996-.15894085s-.2034286-.45093541-.4785277-.95127955c-.2391914-.435036-.5715506-.88247375-.9782668-1.41730428-.1309095-.17214568-.2865834-.37902694-.45073-.59177846-.2444202-.31679474-.5076261-.59548046-.7358299-.84300684-.2437813-.2644228-.4719418-.53429524-.6875412-.72726732-.303366-.27152749-.5818625-.49202237-.8440131-.7169217-.8788963-.75400582-1.4689529-1.08190646-2.1440228-1.43178782-.4942621-.25617058-1.5642289-.84592302-2.2963682-1.01669605-.7050311-.16445-.9968569-.39360499-2.4672682-.54625248z" fill="#f6524f"/><path d="m16.2509877 20.8588957c3.3038321 0 5.9821169-2.6551618 5.9821169-5.9304703s-2.6782848-5.93047039-5.9821169-5.93047039c-3.303832 0-5.9821168 2.65516189-5.9821168 5.93047039s2.6782848 5.9304703 5.9821168 5.9304703z" fill="#66b7f9" stroke="#fff" stroke-width=".716"/></g></svg>

<svg xmlns="http://www.w3.org/2000/svg" xmlns:xlink="http://www.w3.org/1999/xlink" width="30" height="30" version="1.1" viewBox="0 0 30 30"><title>browser</title><desc>Created with Sketch.</desc><g id="icons" fill="none" fill-rule="evenodd" stroke="none" stroke-width="1" transform="translate(-252.000000, -1564.000000)"><g id="browser" transform="translate(251.000000, 1564.000000)"><path id="Oval-1" fill="#FFE36A" d="M16.1736328,29.601227 C24.3620097,29.601227 31,23.0205457 31,14.902863 C31,11.3726529 29.7446247,8.1331201 27.6523001,5.5990783 C24.9333451,2.30611671 20.8010561,0.204498978 16.1736328,0.204498978 C7.98525585,0.204498978 1.34726554,6.78518029 1.34726554,14.902863 C1.34726554,23.0205457 7.98525585,29.601227 16.1736328,29.601227 Z"/><path id="Path-1" fill="#71DE85" d="M2.31946206,20.9045373 C1.9736552,20.1853673 1.89975224,19.8296313 1.67555877,19.3222712 C1.5069521,18.9407066 1.36924989,18.2761859 1.28312325,17.7667729 C1.21359767,17.35555 1.18513149,17.0849178 1.1433238,16.8391061 C1.01548632,16.0874751 1.06413124,14.2695703 1.06413124,14.2695703 C1.06413124,14.2695703 1.12624568,13.1886853 1.31875456,12.0719649 C1.42769723,11.4400014 1.62715044,10.8037433 1.76005296,10.3276295 C2.14888364,8.93467084 3.41878883,6.7524599 3.41878883,6.7524599 C3.41878883,6.7524599 5.65866247,9.00648893 7.70684389,11.3868937 C8.88772737,12.7593213 8.30798028,12.1874879 9.30155716,13.0793421 C10.295134,13.9711964 9.3647887,12.9634951 10.2290614,13.961498 C12.2700985,16.3183478 10.7993854,17.4517724 11.2607809,17.9903765 C11.7221764,18.5289806 13.892781,20.0688636 14.9158482,20.203366 C17.1460301,20.4965676 21.7532018,17.5656513 21.7532018,17.5656513 L16.3568811,29.6827524 C16.3568811,29.6827524 16.3117039,29.7574132 15.1622716,29.6571327 C13.4903691,29.5112703 10.3206062,29.0218657 7.07162413,26.6786596 C6.72981132,26.43214 5.98045652,25.8040391 5.37770152,25.1972442 C4.3897528,24.202674 3.50099852,22.9514941 3.50099852,22.9514941 C3.50099852,22.9514941 3.43880775,23.0017904 2.75673485,21.6698579 C2.59579257,21.3555744 2.42625859,21.1266406 2.31946206,20.9045373 Z"/><path id="Path-1" fill="#F6524F" d="M18.3767944,0.237842228 C16.9063831,-0.0170547151 16.9089808,0.0630601848 16.9089808,0.0630601848 C16.9089808,0.0630601848 16.2535065,-0.00490362378 15.4167535,0.0346415873 C14.9535257,0.0565338753 14.4347406,0.146831265 13.9408524,0.215707689 C13.0952282,0.333636351 12.195993,0.556242154 11.7941088,0.681845245 C5.34791023,2.69651064 3.1125299,7.48458306 3.1125299,7.48458306 C3.1125299,7.48458306 10.2756268,17.419467 10.7138633,17.8589113 C11.1520999,18.2983555 9.65209005,13.1383242 10.3907452,13.900538 C10.8445808,14.3640829 12.2262672,15.8816218 12.2262672,15.8816218 C12.9706091,14.4500768 11.2451027,11.8692088 12.226267,10.8659041 C12.948999,10.1268634 12.4263291,10.0046084 13.1326159,9.95894081 C13.8389028,9.91327328 10.8369843,10.1764404 13.9408527,9.95894081 C17.044721,9.74144125 12.2898409,9.16294829 15.4167536,8.95389835 C16.3289551,8.89291306 12.1735314,9.0164038 13.9408527,8.95389835 C15.1325835,8.91175001 12.3542066,9.01176626 14.2212258,8.95389835 C15.2186569,8.92298316 15.6736543,8.68027659 16.9962627,8.63907758 C22.1117152,8.47973215 29.4593623,8.48013673 29.4593623,8.48013673 C29.4593623,8.48013673 29.2559337,8.02920132 28.9808346,7.52885718 C28.7416432,7.09382118 28.409284,6.64638343 28.0025678,6.1115529 C27.8716583,5.93940722 27.7159844,5.73252596 27.5518378,5.51977444 C27.3074176,5.2029797 27.0442117,4.92429398 26.8160079,4.6767676 C26.5722266,4.4123448 26.3440661,4.14247236 26.1284667,3.94950028 C25.8251007,3.67797279 25.5466042,3.45747791 25.2844536,3.23257858 C24.4055573,2.47857276 23.8155007,2.15067212 23.1404308,1.80079076 C22.6461687,1.54462018 21.5762019,0.954867737 20.8440626,0.784094712 C20.1390315,0.619644712 19.8472057,0.390489724 18.3767944,0.237842228 Z"/><path id="Oval-2" fill="#66B7F9" stroke="#FFF" stroke-width=".716" d="M16.2509877,20.8588957 C19.5548198,20.8588957 22.2331046,18.2037339 22.2331046,14.9284254 C22.2331046,11.6531169 19.5548198,8.99795501 16.2509877,8.99795501 C12.9471557,8.99795501 10.2688709,11.6531169 10.2688709,14.9284254 C10.2688709,18.2037339 12.9471557,20.8588957 16.2509877,20.8588957 Z"/></g></g></svg>
